img/footer-apify-logo.svg

<svg width="91" height="25" viewBox="0 0 91 25" fill="none" xmlns="http://www.w3.org/2000/svg">
    <path
        d="M3.13535 2.85082C2.6917 2.91225 2.2645 3.06051 1.87818 3.28712C1.49185 3.51373 1.15397 3.81425 0.883847 4.17151C0.613722 4.52876 0.416649 4.93575 0.30389 5.36921C0.191131 5.80267 0.164898 6.2541 0.226689 6.6977L2.24324 21.0956L10.7262 1.79199L3.13535 2.85082Z"
        fill="#97D700"/>
    <path
        d="M23.6042 14.8474L22.8114 3.77856C22.7446 2.87835 22.3241 2.04122 21.6417 1.45027C20.9593 0.859321 20.0707 0.562647 19.1702 0.625142C19.094 0.625142 19.0177 0.639331 18.9432 0.649972L15.6692 1.10223L22.861 17.2258C23.401 16.5557 23.6665 15.7057 23.6042 14.8474Z"
        fill="#71C5E8"/>
    <path
        d="M5.3363 24.595C5.91693 24.6609 6.50473 24.5754 7.04248 24.3467L19.3919 19.1359L13.5143 5.9707L5.3363 24.595Z"
        fill="#FF9013"/>
    <path
        d="M33.8306 5.30371H37.7325L43.1809 19.9268H39.687L38.6654 16.933H32.7878L31.7626 19.9268H28.3787L33.8306 5.30371ZM33.6533 14.3365H37.7928L35.7922 8.34184H35.7071L33.6533 14.3365Z"
        fill="white"/>
    <path d="M58.8416 5.30371H62.1439V19.9268H58.8416V5.30371Z" fill="white"/>
    <path d="M64.634 5.30371H75.3446V8.00309H67.9435V12.1054H73.9063V14.7373H67.9435V19.9233H64.634V5.30371Z"
          fill="white"/>
    <path
        d="M82.1161 14.3791L76.618 5.30371H80.3656L83.7939 11.3197H83.8791L87.4776 5.30371H91L85.4398 14.3578V19.9268H82.1161V14.3791Z"
        fill="white"/>
    <path
        d="M51.7508 5.30371H44.4579V19.9268H47.7585V15.2925H51.7508C53.0754 15.2925 54.3458 14.7663 55.2824 13.8297C56.219 12.893 56.7452 11.6227 56.7452 10.2981C56.7452 8.9735 56.219 7.70316 55.2824 6.76653C54.3458 5.8299 53.0754 5.30371 51.7508 5.30371ZM51.3855 12.7208H47.7585V7.87539H51.3855C52.028 7.87539 52.6442 8.13064 53.0986 8.58499C53.5529 9.03933 53.8082 9.65555 53.8082 10.2981C53.8082 10.9406 53.5529 11.5569 53.0986 12.0112C52.6442 12.4655 52.028 12.7208 51.3855 12.7208Z"
        fill="white"/>
</svg>

<svg width="91" height="25" fill="none" xmlns="http://www.w3.org/2000/svg">
    <path d="M3.135 2.85A3.409 3.409 0 0 0 .227 6.699l2.016 14.398 8.483-19.304-7.59 1.059Z" fill="#97D700"/>
    <path d="M23.604 14.847 22.811 3.78a3.414 3.414 0 0 0-3.64-3.154c-.077 0-.153.014-.228.025l-3.274.452 7.192 16.124a3.4 3.4 0 0 0 .743-2.379Z" fill="#71C5E8"/>
    <path d="M5.336 24.595a3.39 3.39 0 0 0 1.706-.248l12.35-5.211L13.514 5.97 5.336 24.595Z" fill="#FF9013"/>
    <path d="M33.83 5.304h3.903l5.448 14.623h-3.494l-1.022-2.994h-5.877l-1.025 2.994h-3.384L33.83 5.304Zm-.177 9.032h4.14l-2-5.994h-.086l-2.054 5.994Zm25.189-9.032h3.302v14.623h-3.302V5.304Zm5.792 0h10.71v2.7h-7.4v4.101h5.962v2.632h-5.963v5.186h-3.309V5.303Zm17.482 9.076-5.498-9.076h3.748l3.428 6.016h.085l3.599-6.016H91l-5.56 9.054v5.569h-3.324v-5.548ZM51.75 5.304h-7.292v14.623h3.3v-4.634h3.993a4.995 4.995 0 1 0 0-9.99Zm-.364 7.417h-3.628V7.875h3.627a2.423 2.423 0 0 1 0 4.846Z" fill="#fff"/>
</svg>
